assets/images/html-5.svg

<?xml version="1.0" encoding="UTF-8"?>
<svg id="Layer_2" data-name="Layer 2" xmlns="http://www.w3.org/2000/svg" viewBox="0 0 17.1 20">
  <defs>
    <style>
      .cls-1 {
        fill: #fff;
      }

      .cls-2 {
        fill: #f16529;
      }

      .cls-3 {
        fill: #e44d26;
      }
    </style>
  </defs>
  <g id="Layer_1-2" data-name="Layer 1">
    <g>
      <path class="cls-3" d="M1.4,17.9L0,0H17.1l-1.4,17.9-7.2,2.1-7.1-2.1Z"/>
      <path class="cls-2" d="M15.6,1.4h-7.1V18.9l5.7-1.8L15.6,1.4Z"/>
      <path class="cls-1" d="M3.9,10.4l-.7-6.8H14.3l-.4,2.1H5.3l.4,2.5h7.9l-.7,6.8-4.3,1.4-4.3-1.4-.4-3.6h2.1l.4,1.8,2.1,.7,2.1-.7,.4-2.9H3.9v.1Z"/>
    </g>
  </g>
</svg>

<svg xmlns="http://www.w3.org/2000/svg" data-name="Layer 2" viewBox="0 0 17.1 20"><g data-name="Layer 1"><path d="M1.4 17.9 0 0h17.1l-1.4 17.9L8.5 20l-7.1-2.1Z" style="fill:#e44d26"/><path d="M15.6 1.4H8.5v17.5l5.7-1.8 1.4-15.7Z" style="fill:#f16529"/><path d="m3.9 10.4-.7-6.8h11.1l-.4 2.1H5.3l.4 2.5h7.9l-.7 6.8-4.3 1.4L4.3 15l-.4-3.6H6l.4 1.8 2.1.7 2.1-.7.4-2.9H3.9v.1Z" style="fill:#fff"/></g></svg>
